movekom_app/assets/icons/indicador_boiler.svg

<svg xmlns="http://www.w3.org/2000/svg" xmlns:xlink="http://www.w3.org/1999/xlink" width="61" height="98.87" viewBox="0 0 61 98.87">
  <defs>
    <filter id="Trazado_478" x="0" y="0" width="61" height="98.87" filterUnits="userSpaceOnUse">
      <feOffset input="SourceAlpha"/>
      <feGaussianBlur stdDeviation="7.5" result="blur"/>
      <feFlood flood-color="#94e538"/>
      <feComposite operator="in" in2="blur"/>
      <feComposite in="SourceGraphic"/>
    </filter>
  </defs>
  <g transform="matrix(1, 0, 0, 1, 0, 0)" filter="url(#Trazado_478)">
    <g id="Trazado_478-2" data-name="Trazado 478" transform="translate(22.5 22.5)">
      <path d="M 8 53.37021636962891 C 3.864490032196045 53.37021636962891 0.5 48.99144744873047 0.5 43.60921478271484 L 0.5 10.26099586486816 C 0.5 4.878766059875488 3.864490032196045 0.4999962747097015 8 0.4999962747097015 C 12.13551044464111 0.4999962747097015 15.5 4.878766059875488 15.5 10.26099586486816 L 15.5 43.60921478271484 C 15.5 48.99144744873047 12.13551044464111 53.37021636962891 8 53.37021636962891 Z" stroke="none"/>
      <path d="M 8 0.9999961853027344 C 4.140190124511719 0.9999961853027344 1 5.154464721679688 1 10.2609977722168 L 1 43.60921478271484 C 1 48.71574783325195 4.140190124511719 52.87021636962891 8 52.87021636962891 C 11.85980987548828 52.87021636962891 15 48.71574783325195 15 43.60921478271484 L 15 10.2609977722168 C 15 5.154464721679688 11.85980987548828 0.9999961853027344 8 0.9999961853027344 M 8 -3.814697265625e-06 C 12.41827964782715 -3.814697265625e-06 16 4.593997955322266 16 10.2609977722168 L 16 43.60921478271484 C 16 49.27620697021484 12.41827964782715 53.87021636962891 8 53.87021636962891 C 3.581720352172852 53.87021636962891 0 49.27620697021484 0 43.60921478271484 L 0 10.2609977722168 C 0 4.593997955322266 3.581720352172852 -3.814697265625e-06 8 -3.814697265625e-06 Z" stroke="none" fill="#656565"/>
    </g>
  </g>
</svg>

<svg height="98.87" viewBox="0 0 61 98.87" width="61" xmlns="http://www.w3.org/2000/svg" xmlns:xlink="http://www.w3.org/1999/xlink"><filter id="a" filterUnits="userSpaceOnUse" height="98.87" width="61" x="0" y="0"><feOffset/><feGaussianBlur result="blur" stdDeviation="7.5"/><feFlood flood-color="#94e538"/><feComposite in2="blur" operator="in"/><feComposite in="SourceGraphic"/></filter><g filter="url(#a)"><g transform="translate(22.5 22.5)"><path d="m8 53.37021637c-4.13550997 0-7.5-4.37876892-7.5-9.76100159v-33.34821892c0-5.3822298 3.36449003-9.76099959 7.5-9.76099959 4.13551044 0 7.5 4.37876979 7.5 9.76099959v33.34821892c0 5.38223267-3.36448956 9.76100159-7.5 9.76100159z"/><path d="m8 .99999619c-3.85980988 0-7 4.15446853-7 9.26100158v33.34821701c0 5.10653305 3.14019012 9.26100159 7 9.26100159s7-4.15446854 7-9.26100159v-33.34821701c0-5.10653305-3.14019012-9.26100158-7-9.26100158m0-1c4.41827965 0 8 4.59400177 8 10.26100158v33.34821701c0 5.66699219-3.58172035 10.26100159-8 10.26100159s-8-4.5940094-8-10.26100159v-33.34821701c0-5.66699981 3.58172035-10.26100158 8-10.26100158z" fill="#656565"/></g></g></svg>
